!!!COM: Mozart, Wolfgang Amadeus
!!!OPR: Quartet in F Major
!!!OTL: Tempo di Minuetto
!!!OMV: 3
!!!SCT: K 158
!!!SCA: Chronologisch-thematisches Verzeichnis sämtlicher Tonwerke Wolfgang Amade Mozarts (L. von Köchel; 1862, 2/1905, 3/1937, 1947)
!!!YOR: Breitkopf & Härtel Edition
!!!EED: Edmund Correia, Jr.
!!!ENC: Edmund Correia, Jr.
!!!CDT: 1756/1/27/-1791/12/5/
!!!OCY: Österreich
!!!YEC: Copyright (c) 1994, 2000 Center for Computer Assisted Research in the Humanities
!!!YEM: Rights to all derivative editions reserved.
!!!YEM: Refer to licensing agreement for further details.
!!!YEN: United States of America
**kern	**kern	**kern	**kern
*I:Violino 1	*I:Violino 2	*I:Viola	*I:Violoncello
*>[A,A,B,C,C,D,D,E]	*>[A,A,B,C,C,D,D,E]	*>[A,A,B,C,C,D,D,E]	*>[A,A,B,C,C,D,D,E]
*>A	*>A	*>A	*>A
*clefG2	*clefG2	*clefC3	*clefF4
*k[b-]	*k[b-]	*k[b-]	*k[b-]
*F:	*F:	*F:	*F:
*M3/4	*M3/4	*M3/4	*M3/4
! Tempo di Minuetto	! Tempo di Minuetto	! Tempo di Minuetto	! Tempo di Minuetto
! 16ggP/	! 16gP/	!	!
*tb32	*tb32	*tb32	*tb32
=0-	=0-	=0-	=0-
(8ff	(8f	4r	4r
16ee	16e	.	.
16dd)	16d)	.	.
2ryy	2ryy	2ryy	2ryy
=1	=1	=1	=1
(4cc	(4c	(4A	(4AA
4a	4A	4F	4FF
4b-)	4B-)	4G)	4GG)
=2	=2	=2	=2
4cc	4c	4A	4AA
4r	4r	4r	4r
(8.ffT	4r	4r	4r
32ee	.	.	.
32ff)	.	.	.
=3	=3	=3	=3
4aa	2.r	2.r	2.r
4r	.	.	.
(8.ffT	.	.	.
32ee	.	.	.
32ff)	.	.	.
=4	=4	=4	=4
4cc	4r	2.r	2.r
4r	4r	.	.
! 16ddP/	! 16dP/	!	!
(8cc	(8c	.	.
16b-	16B-	.	.
16a)	16A)	.	.
=5	=5	=5	=5
4g'	4G'	4E'	4E'
(4g	(4G	(4E	(4E
4a)	4A)	4F)	4F)
=6	=6	=6	=6
4b-'	4B-'	4G'	4G'xx
4r	4r	4r	4r
(8.ggT	4r	4r	4r
32ff	.	.	.
32gg)	.	.	.
=7	=7	=7	=7
4bb-	2.r	2.r	2.r
4r	.	.	.
(8.ggT	.	.	.
32ff	.	.	.
32gg)	.	.	.
=8	=8	=8	=8
4ee	4r	4r	2.r
4r	4r	4r	.
!	! 16ccP/	! 16aP/	!
4r	(8b-	8g	.
.	16a	16f	.
.	16g)	16e	.
=9	=9	=9	=9
4r	4a	4f	4F
(4gg#	4r	4r	4r
4aa)	4r	4r	4r
=10	=10	=10	=10
4r	4f	4d	4G
(4cc	4r	4r	4r
4bn)	4r	4r	4r
=11	=11	=11	=11
4r	4e	4c	4A
(4bbn	4r	4r	4r
4ccc)	4r	4r	4r
=12	=12	=12	=12
4r	4d	4G	4BBn
(4ggn	4r	4r	4r
4ff)	4r	4r	4r
=13	=13	=13	=13
8ee'	8c	8e'	8C'
8r	8c	8r	8r
8dd'	8c	8d'	8BBn'
8r	8c	8r	8r
8ee'	8c	8e'	8C'
8r	8c	8r	8r
=14	=14	=14	=14
(2ff	8c	(2f	(2A
.	8c	.	.
.	8c	.	.
.	8c	.	.
4ee)	8c	4e)	4G)
.	8c	.	.
=15	=15	=15	=15
8ee'	8c	8e'	8G'
8r	8c	8r	8r
8dd'	8c	8d'	8F'
8r	8c	8r	8r
8ee'	8c	8e'	8G'
8r	8c	8r	8r
=16	=16	=16	=16
(2aa	8c	(2a	(2F
.	8c	.	.
.	8c	.	.
.	8c	.	.
4gg)	4c	4g)	4E)
=17	=17	=17	=17
4r	4r	4G	4EE
(16aaK	(16aK	4r	4r
8.gg)	8.g)	.	.
(16ffK	(16fK	4r	4r
8.ee)	8.e)	.	.
=18	=18	=18	=18
(16cc#K	(16c#K	4A	4FF
8.dd)	8.d)	.	.
(16eeK	(16eK	4r	4r
8.ff)	8.f)	.	.
(16gg#K	(16g#K	4r	4r
8.aa)	8.a)	.	.
=19	=19	=19	=19
2ccn	2e	2G	4r
.	.	.	4G
! 16eeP/	! 16gnP/	!	!
(8dd	(8f	4Bn	4GG
16cc	16e	.	.
16dd)	16f)	.	.
=20	=20	=20	=20
4cc	4e	4c	4C
4r	4r	4r	4r
8gg'	8e'	4r	4r
8ff'	8d'	.	.
=21	=21	=21	=21
4ee'	4c'	2.r	2.r
4ee'	4c'	.	.
4ee'	4c'	.	.
=22	=22	=22	=22
(4ff	(4d	4r	4r
4dd)	4Bn)	4r	4r
4r	4r	8a'	8F'
.	.	8g'	8E'
=23	=23	=23	=23
2.r	2.r	4f'	4D'
.	.	4f'	4D'
.	.	4f'	4D'
=24	=24	=24	=24
4r	2.r	(4g	(4E
4r	.	4e)	4C)
! 16ddP/	!	!	!
(8cc	.	4r	4r
16b-	.	.	.
16a)	.	.	.
=25	=25	=25	=25
2dd	(4cc	(4a	(4F#
.	4b-)	4g)	4G)
! 16ccP/	!	!	!
(8b-	4r	4r	4r
16a	.	.	.
16g)	.	.	.
=26	=26	=26	=26
2cc	(4b-	(4g	(4E
.	4a)	4f)	4Fn)
! 16b-P/	!	!	!
(8a	4r	4r	4r
16g	.	.	.
16f)	.	.	.
=27	=27	=27	=27
4c	4r	4r	4r
(4b-	(4g	4c	(4E
4a)	4f)	4c	4F)
=28	=28	=28	=28
4g	4e	4c	4C
4r	4r	4r	4r
(12c	(12c	(12c	(12C
12d	12d	12d	12D
12e)	12e)	12e)	12E)
=29	=29	=29	=29
4f	4f	4f	4F
4r	4r	4r	4r
(12e	(12e	(12e	(12E
12f	12f	12f	12F
12g)	12g)	12g)	12G)
=30	=30	=30	=30
4a	4a	4a	4A
4r	4r	4r	4r
(12g	(12g	(12g	(12G
12a	12a	12a	12A
12bn)	12bn)	12bn)	12Bn)
=31	=31	=31	=31
4cc'	4cc'	4cc	4c
4dd'	4dd'	4dd	4d
4ee'	4ee'	4ee	4e
=32	=32	=32	=32
4cc	4cc	4cc	4c
4r	4r	4r	4r
(8.b-T	4r	4r	4r
32a	.	.	.
32b-)	.	.	.
=33	=33	=33	=33
4ee	2.r	2.r	2.r
4r	.	.	.
(8.ggT	.	.	.
32ff	.	.	.
32gg)	.	.	.
=34	=34	=34	=34
4bb-	4r	2.r	2.r
4r	4r	.	.
4r	4dd-	.	.
=35	=35	=35	=35
2.r	(4f	2.r	4r
.	4e)	.	4r
.	4b-'	.	4d-
=36	=36	=36	=36
2.r	(4d-	2.r	(4F
.	4c)	.	4E)
.	4dd-	.	4B-'
=37	=37	=37	=37
2.r	(4f	2.r	(4D-
.	4e)	.	4C)
.	4b-'	.	4d-
=38	=38	=38	=38
2.r	(4d-	4r	(4F
.	4c)	4r	4E)
.	4r	(8.cT	4r
.	.	32Bn	.
.	.	32c)	.
=39	=39	=39	=39
2.r	2.r	4e	2.r
.	.	4r	.
.	.	(8.gT	.
.	.	32f	.
.	.	32g)	.
=40	=40	=40	=40
4r	4r	4b-	2.r
4r	4r	4r	.
! 16ggP/	! 16gP/	!	!
(8ff	(8f	4r	.
16ee	16e	.	.
16dd)	16dn)	.	.
=41	=41	=41	=41
(4cc	(4c	(4A	(4AA
4a	4A	4F	4FF
4b-)	4B-)	4G)	4GG)
=42	=42	=42	=42
4cc'	4c'	4A'	4AA'
4r	4r	4r	4r
(8.ffT	4r	4r	4r
32ee	.	.	.
32ff)	.	.	.
=43	=43	=43	=43
4aa	2.r	2.r	2.r
4r	.	.	.
(8.ffT	.	.	.
32ee	.	.	.
32ff)	.	.	.
=44	=44	=44	=44
4cc	4r	2.r	2.r
4r	4r	.	.
! 16ddP/	! 16dP/	!	!
(8cc	(8c	.	.
16b-	16B-	.	.
16a)	16A)	.	.
=45	=45	=45	=45
4g'	4G'	4E'	4EE'
(4g	(4G	(4E	(4EE
4a)	4A)	4F)	4FF)
=46	=46	=46	=46
4b-'xx	4B-'xx	4G'	4GG'xx
4r	4r	4r	4r
(8.ggT	4r	4r	4r
32ff	.	.	.
32gg)	.	.	.
=47	=47	=47	=47
4bb-	2.r	2.r	2.r
4r	.	.	.
(8.ggT	.	.	.
32ff	.	.	.
32gg)	.	.	.
=48	=48	=48	=48
4ee	4r	4r	2.r
4r	4r	4r	.
!	! 16ccP/	! 16aP/	!
4r	(8b-	(8g	.
.	16a	16f	.
.	16g)	16e)	.
=49	=49	=49	=49
4r	4a	4f	4F
(4bbn	4r	4r	4r
4ccc)	4r	4r	4r
=50	=50	=50	=50
4r	4b-	4f	4BB-
(4ee-	4r	4r	4r
4dd)	4r	4r	4r
=51	=51	=51	=51
4r	4d	4G	4G
(4aa	4r	4r	4r
4bb-)	4r	4r	4r
=52	=52	=52	=52
4r	4b-	4g	4E
(4dd	4r	4r	4r
4cc)	4r	4r	4r
=53	=53	=53	=53
8aa	8a	8c	8F
8r	8r	8c	8r
8gg	8g	8c	8E
8r	8r	8c	8r
8aa	8a	8c	8F
8r	8r	8c	8r
=54	=54	=54	=54
(2bb-	(2b-	8c	(2G
.	.	8c	.
.	.	8c	.
.	.	8c	.
4gg)	4g)	8c	4E)
.	.	8c	.
=55	=55	=55	=55
8bb-	8b-	8c	8G
8r	8r	8c	8r
8aa	8a	8c	8F
8r	8r	8c	8r
8bb-	8b-	8c	8G
8r	8r	8c	8r
=56	=56	=56	=56
(2ccc	(2cc	8c	(2A
.	.	8c	.
.	.	8c	.
.	.	8c	.
4aa)	4a)	8c	4F)
.	.	8c	.
=57	=57	=57	=57
4r	4r	4f	4AA
(16dddK	(16ddK	4r	4r
8.ccc)	8.cc)	.	.
(16bb-K	(16b-K	4r	4r
8.aa)	8.a)	.	.
=58	=58	=58	=58
(16ff#K	(16f#K	4d	4BB-
8.gg)	8.g)	.	.
(16aaK	(16aK	4r	4r
8.gg)	8.g)	.	.
(16bb-K	(16b-K	4r	4r
8.gg)	8.g)	.	.
=59	=59	=59	=59
2ffn	(2fn	(2A	4r
.	.	.	(4C
(8ggT	4e)	4B-)	4C#)
16ff	.	.	.
16gg)	.	.	.
=60	=60	=60	=60
4ff	4f	4A	4D
4r	4r	4r	4r
4r	4r	4r	4r
=61	=61	=61	=61
4r	4r	4F	4BB-
(16cc#K	(16c#K	4r	4r
8.dd)	8.d)	.	.
(16ccnK	(16cnK	4r	4r
8.b-)	8.B-)	.	.
=62	=62	=62	=62
(16aK	(16AK	4r	2.r
8.g)	8.G)	.	.
(16f#K	(16AK	(16F#K	.
8.g)	8.B-)	8.G)	.
(16b-K	(16dK	(16B-K	.
8.g)	8.B-)	8.G)	.
=63	=63	=63	=63
2fn	2A	2c	4r
.	.	.	4C
! 16aP/	! 16cP/	!	!
(8g	(8B-	4E	4CC
16f	16A	.	.
16g)	16B-)	.	.
=64	=64	=64	=64
4f	4A	4Fn	4FF
4r	4r	4r	4r
*>C	*>C	*>C	*>C
*k[b-e-a-d-]	*k[b-e-a-d-]	*k[b-e-a-d-]	*k[b-e-a-d-]
*f:	*f:	*f:	*f:
4cc	4r	4r	4r
=65	=65	=65	=65
(4ff	4r	4r	4r
4een)	4r	4r	4r
4r	4g'	4en'	4c'
=66	=66	=66	=66
4r	(4a-	(4f	(4Bn
4r	4g)	4en)	4c)
4cc'	4r	4r	4r
=67	=67	=67	=67
(4bn	4r	4r	4r
4cc)	4r	4r	4r
4r	4g'	4en'	4C'
=68	=68	=68	=68
4r	(4a-	(4Bn	(4F
4r	4g)	4c)	4En)
4cc	4r	4r	4r
=69	=69	=69	=69
2.aa-	4r	4r	2.F
.	4cc	4f	.
.	4cc	4f	.
=70	=70	=70	=70
2.gg-	4r	4r	2.E-
.	4c	4A-	.
.	4c	4A-	.
=71	=71	=71	=71
2.ff	4r	4r	2.D-
.	4d-	4A-	.
.	4d-	4A-	.
=72	=72	=72	=72
2.ee-	4r	4r	2.AAn
.	4f	4c	.
.	4f	4c	.
=73	=73	=73	=73
2.dd-	4r	4r	2.BB-
.	4f	4B-	.
.	4f	4B-	.
=74	=74	=74	=74
2.cc	4r	4r	2.AA-
.	4f	4c	.
.	4f	4c	.
=75	=75	=75	=75
(16bn	4f	4dn	4GG
16cc	.	.	.
16b	.	.	.
16cc	.	.	.
16ddn	4r	4r	4r
16ee-	.	.	.
16dd	.	.	.
16ee-	.	.	.
16ff	4r	4r	4r
16ggn	.	.	.
16ff	.	.	.
16gg)	.	.	.
=76	=76	=76	=76
(4aa-	(4f	2.dn	2.BBn
4gg	4g	.	.
4ff)	4a-)	.	.
=77	=77	=77	=77
4ee-	4g	4e-	4C
4r	4r	4r	4r
(4cc	(4c	(4G	(4EE-xx
=78	=78	=78	=78
4dd-)	4d-)	4A-)	4FF)
4r	4r	4r	4r
(4bn	(4Bn	(4F	(4GG
=79	=79	=79	=79
8cc)	8c)	8E-)	8C)
8r	8r	8r	8r
8e-	8e-	8e-	8E-
8r	8r	8r	8r
8g	8g	8g	8G
8r	8r	8r	8r
=80	=80	=80	=80
4c	4c	4c	4C
4r	4r	4r	4r
4ee-	4c	4r	4r
=81	=81	=81	=81
(4gg-	(4e-	4r	4r
4ff)	4d-)	4r	4r
4r	4r	4cc	4An
=82	=82	=82	=82
4r	4r	(4ee-	(4c
4r	4r	4dd-)	4B-)
4dd-	4B-	4r	4r
=83	=83	=83	=83
(4ff	(4d-	4r	4r
4ee-)	4c)	4r	4r
4r	4r	4b-	4G
=84	=84	=84	=84
4r	2.r	(4dd-	(4B-
4r	.	4cc)	4A-)
4ccxx	.	4r	4r
=85	=85	=85	=85
2.aa-	4r	2.f	2.r
.	4cc	.	.
.	[4dd-	.	.
=86	=86	=86	=86
2.ggn	4dd-]	2en	2.r
.	4bn	.	.
.	[4cc	4e-	.
=87	=87	=87	=87
2.ff	4cc]	2dn	2.r
.	4an	.	.
.	[4b-	4d-	.
=88	=88	=88	=88
2.ee-	4b-]	2.c	2.r
.	4g	.	.
.	[4a-	.	.
=89	=89	=89	=89
2.dd-	4a-]	2.B-	2.r
.	4f	.	.
.	[4g-	.	.
=90	=90	=90	=90
[2.cc	4g-]	2.A-	2.r
.	4en	.	.
.	4f	.	.
=91	=91	=91	=91
(4cc]	(2gn	(2En	2.r
4b-	.	.	.
4a-)	4f)	4F)	.
=92	=92	=92	=92
4g	4en	4C	2.r
4r	4r	4r	.
4cc'	4r	4r	.
=93	=93	=93	=93
(4ff	4r	4r	4r
4een)	4r	4r	4r
4r	4g'	4en'	4c'
=94	=94	=94	=94
4r	(4a-	(4f	(4Bn
4r	4g)	4en)	4c)
4cc'	4r	4r	4r
=95	=95	=95	=95
(4bn	4r	4r	4r
4cc)	4r	4r	4r
4r	4g'	4en'	4C'
=96	=96	=96	=96
4r	(4a-	(4Bn	(4F
4r	4g)	4c)	4En)
4cc	4r	4r	4r
=97	=97	=97	=97
2.aa-	4r	4r	2.F
.	4cc	4f	.
.	4cc	4f	.
=98	=98	=98	=98
2.gg-	4r	4r	2.E-
.	4c	4A-	.
.	4c	4A-	.
=99	=99	=99	=99
2.ff	4r	4r	2.D-
.	4d-	4A-	.
.	4d-	4A-	.
=100	=100	=100	=100
2.ee-	4r	4r	2.C
.	4f	4An	.
.	4f	4A	.
=101	=101	=101	=101
2.dd-	4r	4r	2.BB-
.	4f	4B-	.
.	4f	4B-	.
=102	=102	=102	=102
2.cc	4r	4r	2.AA-
.	4f	4c	.
.	4f	4c	.
=103	=103	=103	=103
(16bn	4f	4dn	4GG
16cc	.	.	.
16b	.	.	.
16cc	.	.	.
16ddn	4r	4r	4r
16ee-	.	.	.
16dd	.	.	.
16ee-	.	.	.
16ff	4r	4r	4r
16ggn	.	.	.
16ff	.	.	.
16gg)	.	.	.
=104	=104	=104	=104
(4aa-	(4f	2.dn	(2.BBn
4gg	4g	.	.
4ff)	4a-)	.	.
=105	=105	=105	=105
(16een	4g	4d-	4BB-)
16ff	.	.	.
16ee	.	.	.
16ff	.	.	.
16gg	4r	4r	4r
16aa-	.	.	.
16gg	.	.	.
16aa-	.	.	.
16bb-	4r	4r	4r
16ccc	.	.	.
16bb-	.	.	.
16ccc)	.	.	.
=106	=106	=106	=106
(4ddd-	(4b-	(4g	(2.En
4ccc	4a-	4c)	.
4bb-)	4g)	4c'	.
=107	=107	=107	=107
4aa-'	4f'xx	4c	4F)
4r	4r	4r	4r
(4ff	(4f	(4c	(4AA-
=108	=108	=108	=108
4gg-)	4g-)	4d-)	4BB-)
4r	4r	4r	4r
(4een	(4en	(4B-	(4C
=109	=109	=109	=109
8ff)	8f)	8A-)	8F)
8r	8r	8r	8r
8a-	8a-	8A-	8AA-
8r	8r	8r	8r
8cc	8cc	8c	8C
8r	8r	8r	8r
=110	=110	=110	=110
4f	4f	4F	4FF
4r	4r	4r	4r
! Da capo Tempo di Minuetto	! Da capo Tempo di Minuetto	! Da capo Tempo di Minuetto	! Da capo Tempo di Minuetto
! senza Ritornello	! senza Ritornello	! senza Ritornello	! senza Ritornello
==:|!	==:|!	==:|!	==:|!
*>E	*>E	*>E	*>E
*-	*-	*-	*-
!!!RWG: Appoggiaturas of spine 'Violino 1' need manual editing in measures: 0, 4, 19, 24, 25, 26, 40, 44, 63
!!!RWG: Appoggiaturas of spine 'Violino 2' need manual editing in measures: 0, 4, 8, 19, 40, 44, 48, 63
!!!RWG: Appoggiaturas of spine 'Viola' need manual editing in measures: 8, 48
!!!RWG: Key is interpreted using the Humdrum key tool.
!!!AFT: stage2
!!!END: 1994/03/30
!!format changes:
!!content changes:
!!public access: complete
!!!KEY: 1785260819
!!!EMD: Converted from MuseData to Humdrum Dec 16, 2000, by Andreas Kornstaedt using muse2kern.
